assets/server.svg

<svg enable-background="new 0 0 32 58" height="512" viewBox="0 0 32 58" width="512" xmlns="http://www.w3.org/2000/svg"><path d="m29.385 0h-26.77c-1.444 0-2.615 1.171-2.615 2.615v17.385 8 27.385c0 1.444 1.171 2.615 2.615 2.615h26.771c1.443 0 2.614-1.171 2.614-2.615v-27.385-8-17.385c0-1.444-1.171-2.615-2.615-2.615z" fill="#e7eced"/><g fill="#afb6bb"><path d="m21 4h-10c-.552 0-1-.448-1-1s.448-1 1-1h10c.552 0 1 .448 1 1s-.448 1-1 1z"/><path d="m28 4h-1c-.552 0-1-.448-1-1s.448-1 1-1h1c.552 0 1 .448 1 1s-.448 1-1 1z"/><path d="m17.241 55h-2.483c-.971 0-1.758-.787-1.758-1.759v-.483c0-.971.787-1.758 1.759-1.758h2.483c.971 0 1.758.787 1.758 1.759v.483c0 .971-.787 1.758-1.759 1.758z"/></g><path d="m0 6h32v42h-32z" fill="#43566b"/><path d="m6 30.5v7c0 1.933 4.477 3.5 10 3.5s10-1.567 10-3.5v-7z" fill="#ed8a19"/><path d="m6 23.5v7c0 1.933 4.477 3.5 10 3.5s10-1.567 10-3.5v-7z" fill="#ebba16"/><path d="m6 16.5v7c0 1.933 4.477 3.5 10 3.5s10-1.567 10-3.5v-7z" fill="#ed8a19"/><ellipse cx="16" cy="16.5" fill="#ebba16" rx="10" ry="3.5"/></svg>

<svg xmlns="http://www.w3.org/2000/svg" height="512" viewBox="0 0 32 58" width="512"><path d="M29.385 0H2.615C1.17 0 0 1.17 0 2.615v52.77C0 56.83 1.17 58 2.615 58h26.77C30.83 58 32 56.83 32 55.385V2.615C32 1.17 30.83 0 29.385 0z" fill="#e7eced"/><path d="M21 4H11a1 1 0 1 1 0-2h10a1 1 0 1 1 0 2zm7 0h-1a1 1 0 1 1 0-2h1a1 1 0 1 1 0 2zM17.24 55h-2.483A1.76 1.76 0 0 1 13 53.241v-.483A1.76 1.76 0 0 1 14.759 51h2.483A1.76 1.76 0 0 1 19 52.759v.483A1.76 1.76 0 0 1 17.241 55z" fill="#afb6bb"/><path d="M0 6h32v42H0z" fill="#43566b"/><path d="m6 30.5v7c0 1.933 4.477 3.5 10 3.5s10-1.567 10-3.5v-7z" fill="#ed8a19"/><path d="m6 23.5v7c0 1.933 4.477 3.5 10 3.5s10-1.567 10-3.5v-7z" fill="#ebba16"/><path d="m6 16.5v7c0 1.933 4.477 3.5 10 3.5s10-1.567 10-3.5v-7z" fill="#ed8a19"/><ellipse cx="16" cy="16.5" fill="#ebba16" rx="10" ry="3.5"/></svg>
